modules/themify-icons/icons/layout-tab-min.svg

<?xml version="1.0" encoding="utf-8"?>
<!-- Generated by IcoMoon.io -->
<!DOCTYPE svg PUBLIC "-//W3C//DTD SVG 1.1//EN" "http://www.w3.org/Graphics/SVG/1.1/DTD/svg11.dtd">
<svg version="1.1" xmlns="http://www.w3.org/2000/svg" xmlns:xlink="http://www.w3.org/1999/xlink" width="17" height="17" viewBox="0 0 17 17">
<g>
</g>
	<path d="M7 2v-1h-7v3.997h1v-2.997h5v3h11v-3h-10zM7 3h4v1h-4v-1zM12 4v-1h4v1h-4z" fill="#000000" />
</svg>

<svg xmlns="http://www.w3.org/2000/svg" width="17" height="17"><path d="M7 2V1H0v3.997h1V2h5v3h11V2H7zm0 1h4v1H7V3zm5 1V3h4v1h-4z"/></svg>
